X:1
T:From Church to Church
T:From Church to Church
T:Harmonized by George Herbert Palmer, circa 1910
T:Public Domain Courtesy of the Cyber Hymnal™
C:Harmonized by George Herbert Palmer, circa 1910
Z:Public Domain
Z:Courtesy of the Cyber Hymnal™
%%score ( 1 2 ) ( 3 4 )
L:1/8
M:6/4
K:F
V:1 treble 
V:2 treble 
V:3 bass 
V:4 bass 
V:1
 G2 | (G2 A2 [FB]2 A2 G2) F2 | ([EG]6 [Fd]4) [Fd]2 | c2 d2 [G_e]2 d2 c2 [Fd]2 | [DB]8 z2 B2 | %5
 [Fd]4 [Fc]2 [Fd]4 [DG]2 | (G2 A2) [Fc]2 (B2 A2) F2 | (A2 B2) [Fc]2 (B2 A2) F2 | %8
 ([EG]6 !fermata![DG]4) |] %9
V:2
 G2 | E4 F4 F2 x2 | x12 | F4 F4 x4 | x10 B2 | x12 | E4 F4 F2 x2 | F4 F4 F2 x2 | x10 |] %9
V:3
 G,2 | ([C,C]4 [B,,D]2 [F,C]4) [F,A,]2 | ([C,C]6 D2 C2) [B,,B,]2 | %3
 [F,A,]4 [_E,B,]2 [F,A,]4 [F,A,]2 | [B,,B,]8 z2 B,2 | B,4 [F,A,]2 [D,A,]4 [G,B,]2 | %6
 [C,C]4 [A,,C]2 [D,F,]4 [D,A,]2 | [D,C]4 [A,,C]2 [B,,D]2 [F,C]2 [F,A,]2 | ([C,C]6 [G,,=B,]4) |] %9
V:4
 G,2 | x12 | x6 B,,4 x2 | x12 | x10 B,2 | B,4 x8 | x12 | x12 | x10 |] %9

